Pods/StripePaymentSheet/StripePaymentSheet/StripePaymentSheet/Resources/StripePaymentSheet.xcassets/PaymentMethods/icon-pm-sepa.imageset/icon-pm-sepa-mod.svg

<svg fill="none" height="16" viewBox="0 0 25 16" width="25" xmlns="http://www.w3.org/2000/svg" xmlns:xlink="http://www.w3.org/1999/xlink"><clipPath id="a"><path d="m0 0h25v16h-25z"/></clipPath><g clip-path="url(#a)"><path d="m22.7612 0h-20.52233c-.08548 0-.1711 0-.25642.00049828-.07212.00051337-.14408.00131364-.21603.00327655-.15693.0042429-.3152.01349877-.47017.04134187-.15744.0283263-.303948.0745303-.446875.1472783-.140511.071435-.26915.16487-.38063.276363-.111528.111493-.204991.239883-.276432.380503-.072785.142884-.1190329.289389-.1471713.446909-.028001.15496-.03732155.31316-.04155062.46988-.00193328.07193-.00276248.14386-.00323221.21578-.00049843.08548-.00033229.17089-.00033229.25652v11.52345c0 .0856-.00016614.1709.00033229.2566.00046973.0719.00129893.1438.00323221.2157.00422907.1566.01354962.3148.04155062.4697.0281384.1576.0743863.3041.1471713.447.071441.1406.164904.2691.276432.3805.11148.1116.240119.2051.38063.2763.142927.0729.289435.1192.446875.1475.15497.0276.31324.0371.47017.0413.07195.0016.14391.0026.21603.0029.08532.0007.17094.0007.25642.0007h20.52233c.0853 0 .1709 0 .2562-.0007.072-.0003.1439-.0013.2162-.0029.1566-.0042.3148-.0137.4702-.0413.1572-.0283.3038-.0746.4467-.1475.1407-.0712.2689-.1647.3806-.2763.1114-.1114.2048-.2399.2765-.3805.0729-.1429.1191-.2894.1471-.447.028-.1549.0371-.3131.0414-.4697.0019-.0719.0029-.1438.0032-.2157.0007-.0857.0007-.171.0007-.2566v-11.52345c0-.08563 0-.17104-.0007-.25652-.0003-.07192-.0013-.14385-.0032-.21578-.0043-.15672-.0134-.31492-.0414-.46988-.028-.15752-.0742-.304025-.1471-.446909-.0717-.14062-.1651-.26901-.2765-.380503-.1117-.111493-.2399-.204928-.3806-.276363-.1429-.072748-.2895-.118952-.4467-.1472783-.1554-.0278431-.3136-.03709897-.4702-.04134187-.0723-.00196291-.1442-.00276318-.2162-.00327655-.0853-.00049828-.1709-.00049828-.2562-.00049828z" fill="#10298d"/><path d="m22.761.53331.2525.000483c.0684.000483.1367.001223.2055.003095.1196.003232.2596.009709.39.033083.1134.020414.2085.051459.2997.097904.0901.045766.1727.10574.2448.177689.0723.072431.1324.155086.1788.246146.0462.09052.077.18514.0973.29932.0233.12897.0298.26925.0331.38957.0018.06792.0027.13584.003.20537.0007.08409.0007.16813.0007.25238v11.52345c0 .0843 0 .1682-.0007.254-.0003.0679-.0012.1359-.0031.2039-.0032.1201-.0097.2603-.0333.3908-.02.1127-.0508.2073-.0973.2983-.0462.0908-.1062.1734-.1782.2453-.0725.0725-.1548.1323-.246.1785-.0905.0462-.1855.0772-.2977.0974-.1331.0237-.2789.0303-.3887.0332-.0691.0016-.1379.0025-.2083.0029-.0839.0006-.1681.0006-.2521.0006h-20.52229c-.00112 0-.0022 0-.00334 0-.08298 0-.16612 0-.25061-.0007-.06889-.0003-.13763-.0012-.20409-.0027-.11231-.003-.2582-.0095-.39019-.0331-.11323-.0204-.20816-.0514-.29993-.0982-.0903-.0458-.172515-.1055-.245029-.1781-.071954-.0718-.13175-.1542-.177983-.2451-.046278-.0909-.077241-.1858-.0976-.2998-.023533-.1302-.029997-.2699-.033228-.3892-.001844-.0683-.002614-.1366-.003053-.2045l-.000332-.2005.000015-.053v-11.52345l-.000015-.05293.000317-.20008c.000453-.06833.001224-.13664.003068-.2049.003231-.11945.009695-.25915.033423-.39049.020179-.11292.051127-.20784.097646-.29917.045871-.09028.105772-.172694.178106-.24499.072045-.072054.154525-.131953.245405-.178157.09079-.046219.1859-.077248.29913-.097617.13047-.023434.2705-.029896.39042-.033143.06836-.001857.13672-.002597.20457-.003065l.2533-.000498z" fill="#10298d"/><g clip-rule="evenodd" fill-rule="evenodd"><path d="m21.1403 9.90528h-2.0648l-.278 1.00812h-1.5969l1.7224-5.83338h2.3316l1.7454 5.83338h-1.564l-.2951-1.00812zm-.3069-1.13634-.7229-2.52854-.7032 2.52854zm-7.8497 2.14446v-5.83338h2.877c.3949 0 .6966.0334.9029.0982.4732.15098.7906.45961.9535.9259.0842.24451.1262.61327.1262 1.10561 0 .59189-.046 1.01676-.138 1.27596-.1853.51172-.5651.80633-1.1388.88315-.0677.01136-.3549.02138-.8609.03006l-.2563.00869h-.9213v1.50581zm1.5443-2.85926h.9627c.3056-.01136.4909-.03541.5586-.07215.0907-.05144.1518-.15365.182-.30663.0197-.10221.0296-.25386.0296-.45427 0-.24718-.0191-.43022-.0585-.5498-.0552-.16701-.1886-.26922-.3989-.30596-.0997-.008-.1997-.0109-.2997-.00869h-.9758zm-7.86221-1.11296h-1.43719c0-.2405-.02826-.40083-.08281-.48233-.08543-.12158-.322-.1817-.70709-.1817-.37524 0-.6243.03473-.74587.10421-.12092.07015-.18138.22246-.18138.45761 0 .21244.05389.35206.16101.41886.07754.04676.17874.07549.30623.08417l.29046.02004c.38809.02441.77584.05403 1.16316.08885.49155.05011.84642.18305 1.06788.39816.17349.16701.27797.38746.31083.65802.01906.16233.02826.34537.02826.54913 0 .46963-.04337.81367-.13143 1.0321-.16035.3995-.52047.652-1.07971.7582-.23394.0448-.59143.0669-1.07444.0669-.80436 0-1.36557-.0481-1.68231-.147-.38772-.1189-.64401-.3621-.76822-.7282-.06966-.2024-.10317-.5411-.10317-1.01674h1.43785v.12158c0 .25319.07163.41619.21489.48767.09857.05077.21818.07683.35881.08017h.52835c.26943 0 .44095-.01403.51586-.04209.13143-.05344.21818-.13762.26024-.25519.02103-.07349.03285-.16701.03285-.28125 0-.25652-.092-.41285-.27666-.46896-.069-.02205-.38969-.05344-.96141-.09219-.4587-.0334-.77742-.06547-.95616-.0962-.47052-.08952-.78464-.2739-.94039-.55314-.138-.23715-.207-.59589-.207-1.07621 0-.36609.03811-.65936.11171-.87981.07426-.22045.19387-.38813.36012-.50237.24118-.17636.55201-.27924.92922-.30997.34753-.02943.69615-.04347 1.04487-.04208.60261 0 1.03239.03473 1.28934.10488.62561.17102.9371.64933.9371 1.43495 0 .0648-.00394.16033-.01314.28993z" fill="#fff"/><path d="m10.7919 5.86028c.6591 0 1.2461.30302 1.6327.77687l.3444-.7362c-.5621-.52908-1.3062-.8229-2.079-.82095-1.25823 0-2.33441.75858-2.77602 1.8317h-.67126l-.39677.84737h.86352c-.01463.17511-.01327.35119.00408.52605h-.43414l-.3961.84738h1.05105c.45384 1.0467 1.51712 1.7808 2.75564 1.7808.6237 0 1.2033-.1864 1.6822-.505v-1.03922c-.3984.4551-.9746.71612-1.5803.71582-.7099-.0007-1.37154-.35859-1.75962-.95173h2.19922l.3968-.84805h-2.92078c-.02547-.1742-.02958-.35085-.01222-.52605h3.1783l.3961-.84737h-3.29992c.37563-.65001 1.07022-1.05078 1.82212-1.05142z" fill="#ffcc02"/></g></g></svg>

<svg width="25" height="16" viewBox="0 0 25 16" fill="none" xmlns="http://www.w3.org/2000/svg">
<g clip-path="url(#clip0_788_23095)">
<path d="M22.7612 0H2.23887C2.15339 0 2.06777 0 1.98245 0.000498277C1.91033 0.00101165 1.83837 0.00181192 1.76642 0.00377483C1.60949 0.00801773 1.45122 0.0172736 1.29625 0.0451167C1.13881 0.073443 0.992302 0.119647 0.849375 0.192395C0.708864 0.26383 0.580225 0.357265 0.468745 0.468758C0.357217 0.580251 0.263754 0.708641 0.192313 0.849261C0.119528 0.992145 0.0732801 1.13865 0.0451417 1.29617C0.0171407 1.45113 0.00782015 1.60933 0.00359108 1.76605C0.0016578 1.83798 0.000828595 1.90991 0.000358867 1.98183C-0.000139559 2.06731 2.65827e-05 2.15272 2.65827e-05 2.23835V13.7618C2.65827e-05 13.8474 -0.000139559 13.9327 0.000358867 14.0184C0.000828595 14.0903 0.0016578 14.1622 0.00359108 14.2341C0.00782015 14.3907 0.0171407 14.5489 0.0451417 14.7038C0.0732801 14.8614 0.119528 15.0079 0.192313 15.1508C0.263754 15.2914 0.357217 15.4199 0.468745 15.5313C0.580225 15.6429 0.708864 15.7364 0.849375 15.8076C0.992302 15.8805 1.13881 15.9268 1.29625 15.9551C1.45122 15.9827 1.60949 15.9922 1.76642 15.9964C1.83837 15.998 1.91033 15.999 1.98245 15.9993C2.06777 16 2.15339 16 2.23887 16H22.7612C22.8465 16 22.9321 16 23.0174 15.9993C23.0894 15.999 23.1613 15.998 23.2336 15.9964C23.3902 15.9922 23.5484 15.9827 23.7038 15.9551C23.861 15.9268 24.0076 15.8805 24.1505 15.8076C24.2912 15.7364 24.4194 15.6429 24.5311 15.5313C24.6425 15.4199 24.7359 15.2914 24.8076 15.1508C24.8805 15.0079 24.9267 14.8614 24.9547 14.7038C24.9827 14.5489 24.9918 14.3907 24.9961 14.2341C24.998 14.1622 24.999 14.0903 24.9993 14.0184C25 13.9327 25 13.8474 25 13.7618V2.23835C25 2.15272 25 2.06731 24.9993 1.98183C24.999 1.90991 24.998 1.83798 24.9961 1.76605C24.9918 1.60933 24.9827 1.45113 24.9547 1.29617C24.9267 1.13865 24.8805 0.992145 24.8076 0.849261C24.7359 0.708641 24.6425 0.580251 24.5311 0.468758C24.4194 0.357265 24.2912 0.26383 24.1505 0.192395C24.0076 0.119647 23.861 0.073443 23.7038 0.0451167C23.5484 0.0172736 23.3902 0.00801773 23.2336 0.00377483C23.1613 0.00181192 23.0894 0.00101165 23.0174 0.000498277C22.9321 0 22.8465 0 22.7612 0Z" fill="#10298D"/>
<path d="M22.761 0.53331L23.0135 0.533793C23.0819 0.534276 23.1502 0.535016 23.219 0.536888C23.3386 0.54012 23.4786 0.546597 23.609 0.569971C23.7224 0.590385 23.8175 0.62143 23.9087 0.667875C23.9988 0.713641 24.0814 0.773615 24.1535 0.845564C24.2258 0.917995 24.2859 1.00065 24.3323 1.09171C24.3785 1.18223 24.4093 1.27685 24.4296 1.39103C24.4529 1.52 24.4594 1.66028 24.4627 1.7806C24.4645 1.84852 24.4654 1.91644 24.4657 1.98597C24.4664 2.07006 24.4664 2.1541 24.4664 2.23835V13.7618C24.4664 13.8461 24.4664 13.93 24.4657 14.0158C24.4654 14.0837 24.4645 14.1517 24.4626 14.2197C24.4594 14.3398 24.4529 14.48 24.4293 14.6105C24.4093 14.7232 24.3785 14.8178 24.332 14.9088C24.2858 14.9996 24.2258 15.0822 24.1538 15.1541C24.0813 15.2266 23.999 15.2864 23.9078 15.3326C23.8173 15.3788 23.7223 15.4098 23.6101 15.43C23.477 15.4537 23.3312 15.4603 23.2214 15.4632C23.1523 15.4648 23.0835 15.4657 23.0131 15.4661C22.9292 15.4667 22.845 15.4667 22.761 15.4667H2.23871C2.23759 15.4667 2.23651 15.4667 2.23537 15.4667C2.15239 15.4667 2.06925 15.4667 1.98476 15.466C1.91587 15.4657 1.84713 15.4648 1.78067 15.4633C1.66836 15.4603 1.52247 15.4538 1.39048 15.4302C1.27725 15.4098 1.18232 15.3788 1.09055 15.332C1.00025 15.2862 0.918035 15.2265 0.845521 15.1539C0.773567 15.0821 0.713771 14.9997 0.667538 14.9088C0.62126 14.8179 0.590297 14.723 0.569938 14.609C0.546405 14.4788 0.539941 14.3391 0.53671 14.2198C0.534866 14.1515 0.534096 14.0832 0.533657 14.0153L0.533325 13.8148L0.53334 13.7618V2.23835L0.533325 2.18542L0.533642 1.98534C0.534095 1.91701 0.534866 1.8487 0.53671 1.78044C0.539941 1.66099 0.546405 1.52129 0.570133 1.38995C0.590312 1.27703 0.62126 1.18211 0.667779 1.09078C0.71365 1.0005 0.773551 0.918086 0.845885 0.84579C0.91793 0.773736 1.00041 0.713837 1.09129 0.667633C1.18208 0.621414 1.27719 0.590385 1.39042 0.570016C1.52089 0.546582 1.66092 0.54012 1.78084 0.536873C1.8492 0.535016 1.91756 0.534276 1.98541 0.533808L2.23871 0.53331H22.761Z" fill="#10298D"/>
<path fill-rule="evenodd" clip-rule="evenodd" d="M21.1403 9.90528H19.0755L18.7975 10.9134H17.2006L18.923 5.08002H21.2546L23 10.9134H21.436L21.1409 9.90528H21.1403ZM20.8334 8.76894L20.1105 6.2404L19.4073 8.76894H20.8334ZM12.9837 10.9134V5.08002H15.8607C16.2556 5.08002 16.5573 5.11342 16.7636 5.17822C17.2368 5.3292 17.5542 5.63783 17.7171 6.10412C17.8013 6.34863 17.8433 6.71739 17.8433 7.20973C17.8433 7.80162 17.7973 8.22649 17.7053 8.48569C17.52 8.99741 17.1402 9.29202 16.5665 9.36884C16.4988 9.3802 16.2116 9.39022 15.7056 9.3989L15.4493 9.40759H14.528V10.9134H12.9837ZM14.528 8.05414H15.4907C15.7963 8.04278 15.9816 8.01873 16.0493 7.98199C16.14 7.93055 16.2011 7.82834 16.2313 7.67536C16.251 7.57315 16.2609 7.4215 16.2609 7.22109C16.2609 6.97391 16.2418 6.79087 16.2024 6.67129C16.1472 6.50428 16.0138 6.40207 15.8035 6.36533C15.7038 6.35733 15.6038 6.35443 15.5038 6.35664H14.528V8.05414ZM6.66579 6.94118H5.2286C5.2286 6.70068 5.20034 6.54035 5.14579 6.45885C5.06036 6.33727 4.82379 6.27715 4.4387 6.27715C4.06346 6.27715 3.8144 6.31188 3.69283 6.38136C3.57191 6.45151 3.51145 6.60382 3.51145 6.83897C3.51145 7.05141 3.56534 7.19103 3.67246 7.25783C3.75 7.30459 3.8512 7.33332 3.97869 7.342L4.26915 7.36204C4.65724 7.38645 5.04499 7.41607 5.43231 7.45089C5.92386 7.501 6.27873 7.63394 6.50019 7.84905C6.67368 8.01606 6.77816 8.23651 6.81102 8.50707C6.83008 8.6694 6.83928 8.85244 6.83928 9.0562C6.83928 9.52583 6.79591 9.86987 6.70785 10.0883C6.5475 10.4878 6.18738 10.7403 5.62814 10.8465C5.3942 10.8913 5.03671 10.9134 4.5537 10.9134C3.74934 10.9134 3.18813 10.8653 2.87139 10.7664C2.48367 10.6475 2.22738 10.4043 2.10317 10.0382C2.03351 9.8358 2 9.4971 2 9.02146H3.43785V9.14304C3.43785 9.39623 3.50948 9.55923 3.65274 9.63071C3.75131 9.68148 3.87092 9.70754 4.01155 9.71088H4.5399C4.80933 9.71088 4.98085 9.69685 5.05576 9.66879C5.18719 9.61535 5.27394 9.53117 5.316 9.4136C5.33703 9.34011 5.34885 9.24659 5.34885 9.13235C5.34885 8.87583 5.25685 8.7195 5.07219 8.66339C5.00319 8.64134 4.6825 8.60995 4.11078 8.5712C3.65208 8.5378 3.33336 8.50573 3.15462 8.475C2.6841 8.38548 2.36998 8.2011 2.21423 7.92186C2.07623 7.68471 2.00723 7.32597 2.00723 6.84565C2.00723 6.47956 2.04534 6.18629 2.11894 5.96584C2.1932 5.74539 2.31281 5.57771 2.47906 5.46347C2.72024 5.28711 3.03107 5.18423 3.40828 5.1535C3.75581 5.12407 4.10443 5.11003 4.45315 5.11142C5.05576 5.11142 5.48554 5.14615 5.74249 5.2163C6.3681 5.38732 6.67959 5.86563 6.67959 6.65125C6.67959 6.71605 6.67565 6.81158 6.66645 6.94118H6.66579Z" fill="white"/>
<path fill-rule="evenodd" clip-rule="evenodd" d="M10.7919 5.86028C11.451 5.86028 12.038 6.1633 12.4246 6.63715L12.769 5.90095C12.2069 5.37187 11.4628 5.07805 10.69 5.08C9.43177 5.08 8.35559 5.83858 7.91398 6.9117H7.24272L6.84595 7.75907H7.70947C7.69484 7.93418 7.6962 8.11026 7.71355 8.28512H7.27941L6.88331 9.1325H7.93436C8.3882 10.1792 9.45148 10.9133 10.69 10.9133C11.3137 10.9133 11.8933 10.7269 12.3722 10.4083V9.36908C11.9738 9.82418 11.3976 10.0852 10.7919 10.0849C10.082 10.0842 9.42036 9.72631 9.03228 9.13317H11.2315L11.6283 8.28512H8.70752C8.68205 8.11092 8.67794 7.93427 8.6953 7.75907H11.8736L12.2697 6.9117H8.96978C9.34541 6.26169 10.04 5.86092 10.7919 5.86028Z" fill="#FFCC02"/>
</g>
<defs>
<clipPath id="clip0_788_23095">
<rect width="25" height="16" fill="white"/>
</clipPath>
</defs>
</svg>
